X: 7
T: Bill Malley's
C: Bill Malley
Z: chansherly212
S: https://thesession.org/tunes/162#setting54151
R: barndance
M: 4/4
L: 1/8
K: Amaj
E|:A3 Bc2 Ac|efec A2 e2|c2 A2 e2 A2|c2 B2 BccB |
A3 Bc2 Ac|efec A2 (3Bcd|c2 BA F3G|1 A6 E2:|2 A4 A2 a2||
|:f2 e2 a3 f|efec A2 a2|f2 ef ecAB|c2 B2 B2 a2|
f2 e2 a3 f|efec A2 (3Bcd|c2 BA F3G|1 A4 A2 a2:|2 A4 A4||

